!!!COM: Fe/licien David
!!!CNT: Francais
!!!TXO: Francais
!!!OTL: La Pluie
!!!LYR: Emma Tourneux de Voves
!!!ENC: Jacob Pegg
!!!YOR: Romantic French Song 1830-1870, David Tunley, ed., New York: Garland Publishing, Inc., 1995
!!!ODT: 1843/
!!NB: Vocal melody and text only encoded.
!!NB: Only first strophe encoded.
**kern	**silbe
*clef G2	*
*k[]	*
*M4/4	*
=1	=1
1r	.
=2	=2
4r	.
8r	.
{8a	{Ne
8a	vous
8a	me^-
8g#	-lez
8a	ja-
=3	=3
4b	-mais
8b	a\
8b	la
4cc	nue
8b	ef-
8a	-fa-
=4	=4
4b	-re/-
4e}	-e,}
8r	.
{8a	{Blanc
8b	mes-
8cc#	-sa-
=5	=5
8dd	-ger
8ee	de
4.ff	paix
8b	de
[4ee	paix,
=6	=6
8ee]}	|}
{8dd	{Du
8cc	ciel
8b	larme
4a	e/-
4g#	-ga-
=7	=7
4b	-re/-
4a}	-e!}
2r	.
=8	=8
1r	.
=9	=9
1r	.
=10	=10
*k[f#c#g#]	*
2r	.
{4cc#	{Pour
4cc#	ces
=11	=11
(4cc#	champs
16ddq	|
16cc#q	|
8b	|
8cc#)	|
4.ee	tout
8dd	en
=12	=12
4cc#}	fleurs}
8r	.
{8cc#	{Ces-
4.a	-sez,
8b	o^
=13	=13
4g#	beau
4c#	nu-
(2f#	-a-
=14	=14
4e#)}	-ge,}
8r	.
{8cc#	{Ces-
8cc#	-sez
8cc#	vo-
8cc#	-tre
8cc#	voy-
=15	=15
(2..ee	-a-
8dd)	|
=16	=16
4cc#}	-ge,}
8r	.
{8cc#	{Et
8ff#	sur
8ff#	eux,
8ee	au
8ee	pas-
=17	=17
(8ee	-sa-
8dd)	|
8dd}	-ge,}
{8cc#	{Ver-
4.b	-sez
8cc#	ver-
=18	=18
2dd}	-sez}
2r	.
=19	=19
2r	.
{4f#	{vo-
8f#	-tre
8g#	frai^-
=20	=20
(4e	-cheur!
[2.a)	|
=21	=21
4a]}	|}
4r	.
2r	.
*-	*-
